!!!OTL: DER MAI IST AUF DEM WEGE
!!!ARE: Europa, Mitteleuropa, Deutschland
!!!SCT: B0513
!!!YEM: Copyright 1995, estate of Helmut Schaffrath.
**kern
*ICvox
*Ivox
*M6/8
*k[b-e-a-]
*E-:
{8b-
=1
4b-
8e-
8g
8a-
8b-
=2
4.cc
8b-
8r}
{8b-
=3
4ee-
8b-
8g
8f
8e-
=4
2b-
8r}
{8b-
=5
4cc
8b-
4cc
8dd
=6
4.ff
4ee-}
{8b-
=7
4g
8b-
4f
8b-
=8
2e-
8r}
==
!!!AGN: Wander - Lied
!!!ONB: ESAC (Essen Associative Code) Database: BOEHME
!!!AMT: compound duple
!!!AIN: vox
!!!EED: Helmut Schaffrath
!!!EEV: 1.0
*-
